X: 1
T: Brudmarsch efter Dal Jerk, R\"attvik
N: printed MS of unknown origin
R: march
Z: 2017 John Chambers <jc:trillian.mit.edu>
M: C|
L: 1/8
K: G
"A"[|] D2 |\
G4 B2GB | [d6D6] (cB) | A2d2 A2d2 | (Bc)BA B2[G2B,2] |\
[e2c2]zd (cB)cd | [e6e8] dc | B2d2 (dc)AF | A2[G2B,2] [G2B,2] :|
|: (Bd) |\
(dc)AF (DF)Ac | TB2[G2B,2] [G2B,2](Bd) | (dcAF) (DF)Ac | B2[G2B,2] [G2B,2](AB) |\
[e3c3]d (cB)cd | [e6e8] dc | B2d2 (dc)AF | G6 :|
